X:9223
T:Lancashire Quadrilles,#4. JNu.49
M:2/4
L:1/16
Q:100
S:James Nuttall MS,c1830?,Rossendale,East Lancs.
R:Quadrille
O:England
A:East Lancashire
Z:vmp.Manchester Morris Men
K:G
d2|g2dc B2d2|gfga gfed|g2ba g2b2|agfe d2ef|!
g2dc B2d2|gfga b2g2|agfe defd|g2b2g2::!
(3def|g2dc BABc|dcBA G2AB|cBcd edcB|A2Bc de=f^f|!
g2dc BABc|dcBA G2AB|cedB cBAF|G2g2g2:|]


